X:155
T:Fiddler's Dream
C:Traditional - Baldassari
N:
R:bluegrass
L:1/8
Q:1/4=220
M:4/4
K:C
[B2G2] [BG][BG] [B2G2] [BG][BG] | [B2G2] [BG][BG] [B2G2] GA |: "G"BA GE DC B,A, | 
G,A, B,D E^F GA | Bd e^f ge ga | bg ag ed3 | bg ag e^f ga | "C"ge dB AG EG | "D"DC B,C D^F GA | 
|1 "D"BG A^F "G"G2 GA :|2 "D"BG A^F "G"G4 |: "D"^FG AG FE DB, | A,B, DE ^FG AF | 
"A"EA AB ^cd e^f | g^f ed ^cB AG | "D"^FG AB AG FE | D^F Ad B^c dB | "A"A^c e^f gf ec | 
|1 "D"d2 [d2^F2] [d4F4] :|2 "D"d^f ed "D7"c4 | z8 | z8 | 



